public/svg/icon/enj.svg

<svg xmlns="http://www.w3.org/2000/svg" xmlns:xlink="http://www.w3.org/1999/xlink" width="32" height="32" viewBox="0 0 32 32"><defs><linearGradient id="enj-c" x1="50%" x2="50%" y1="0%" y2="100%"><stop offset="0%" stop-color="#FFF" stop-opacity=".5"/><stop offset="100%" stop-opacity=".5"/></linearGradient><circle id="enj-b" cx="16" cy="15" r="15"/><filter id="enj-a" width="111.7%" height="111.7%" x="-5.8%" y="-4.2%" filterUnits="objectBoundingBox"><feOffset dy=".5" in="SourceAlpha" result="shadowOffsetOuter1"/><feGaussianBlur in="shadowOffsetOuter1" result="shadowBlurOuter1" stdDeviation=".5"/><feComposite in="shadowBlurOuter1" in2="SourceAlpha" operator="out" result="shadowBlurOuter1"/><feColorMatrix in="shadowBlurOuter1" values="0 0 0 0 0 0 0 0 0 0 0 0 0 0 0 0 0 0 0.199473505 0"/></filter><path id="enj-e" d="M22.3132663,8 C22.8070303,8.05672148 23.3073778,8.08823342 23.7945582,8.17646684 C24.7623356,8.35923607 25.0783445,8.81931033 24.9137565,9.75206363 C24.8479213,10.1302069 24.6043311,10.3633952 24.2159035,10.4264191 C23.9854803,10.4642334 23.7550571,10.4705358 23.5180504,10.4768382 C20.344794,10.4831405 17.1649541,10.4894429 13.9916977,10.5020477 C13.5111008,10.5020477 13.0370874,10.5461644 12.5696575,10.6217931 C10.9961963,10.8675862 10.4036796,11.4915225 10.2720092,13.0103978 C10.2127575,13.7225676 10.2127575,13.7225676 10.9566952,13.7225676 C15.1767312,13.7225676 19.3967672,13.7225676 23.6168032,13.7225676 C23.7418901,13.7225676 23.8603934,13.7225676 23.9854803,13.7225676 C24.1895694,13.7288699 24.387075,13.7666843 24.5582465,13.8738248 C25.1375962,14.2267585 24.9927588,14.7813686 24.9598412,15.291862 C24.9335071,15.7015171 24.6767498,15.9284031 24.235654,16.0103341 C24.0513155,16.041846 23.8603934,16.0481484 23.6760549,16.0481484 C19.344099,16.0481484 15.0121432,16.0481484 10.6867709,16.0481484 C10.206174,16.0481484 10.2127575,16.0481484 10.2522586,16.5019203 C10.2851762,16.9178778 10.3115103,17.327533 10.4168466,17.7308858 C10.6143522,18.4808699 11.0949491,18.9472465 11.8718044,19.1552253 C12.7342455,19.3884136 13.6230206,19.4388327 14.5117957,19.4451351 C17.6126334,19.4640423 20.7068876,19.4577399 23.8077253,19.4577399 C24.2027364,19.4577399 24.5714135,19.508159 24.8018367,19.8547903 C25.249516,20.5228433 24.9005895,21.4555966 24.1171507,21.6950873 C23.4456317,21.9030661 22.7411951,21.9534852 22.043342,21.9597876 C19.1334264,22.0102067 16.2235108,22.0165091 13.3135952,21.9597876 C12.4182365,21.9408804 11.5228779,21.8337398 10.6406863,21.6635754 C8.56687764,21.2539202 7.53326508,20.2455383 7.18433855,18.2539839 C7.10533631,17.7939097 7.05925168,17.327533 7,16.8674588 C7,15.6574004 7,14.4410397 7,13.2309814 C7.03950112,12.8717453 7.07241871,12.5125092 7.11850335,12.1595755 C7.39501117,9.90332093 8.44837429,8.79410078 10.7657731,8.30251458 C11.5887131,8.12604774 12.4314036,8.08823342 13.260927,8.00630239 C16.2695954,8 19.2914309,8 22.3132663,8 Z"/><filter id="enj-d" width="119.4%" height="125%" x="-9.7%" y="-8.9%" filterUnits="objectBoundingBox"><feOffset dy=".5" in="SourceAlpha" result="shadowOffsetOuter1"/><feGaussianBlur in="shadowOffsetOuter1" result="shadowBlurOuter1" stdDeviation=".5"/><feColorMatrix in="shadowBlurOuter1" values="0 0 0 0 0 0 0 0 0 0 0 0 0 0 0 0 0 0 0.204257246 0"/></filter></defs><g fill="none" fill-rule="evenodd"><g fill-rule="nonzero"><use fill="#000" filter="url(#enj-a)" xlink:href="#enj-b"/><use fill="#624DBF" fill-rule="evenodd" xlink:href="#enj-b"/><use fill="url(#enj-c)" fill-rule="evenodd" style="mix-blend-mode:soft-light" xlink:href="#enj-b"/><circle cx="16" cy="15" r="14.5" stroke="#000" stroke-opacity=".097"/></g><g fill-rule="nonzero"><use fill="#000" filter="url(#enj-d)" xlink:href="#enj-e"/><use fill="#FFF" fill-rule="evenodd" xlink:href="#enj-e"/></g></g></svg>

<svg xmlns="http://www.w3.org/2000/svg" xmlns:xlink="http://www.w3.org/1999/xlink" width="32" height="32" viewBox="0 0 32 32"><defs><filter id="a" width="111.7%" height="111.7%" x="-5.8%" y="-4.2%" filterUnits="objectBoundingBox"><feOffset dy=".5" in="SourceAlpha" result="shadowOffsetOuter1"/><feGaussianBlur in="shadowOffsetOuter1" result="shadowBlurOuter1" stdDeviation=".5"/><feComposite in="shadowBlurOuter1" in2="SourceAlpha" operator="out" result="shadowBlurOuter1"/><feColorMatrix in="shadowBlurOuter1" values="0 0 0 0 0 0 0 0 0 0 0 0 0 0 0 0 0 0 0.199473505 0"/></filter><filter id="d" width="119.4%" height="125%" x="-9.7%" y="-8.9%" filterUnits="objectBoundingBox"><feOffset dy=".5" in="SourceAlpha" result="shadowOffsetOuter1"/><feGaussianBlur in="shadowOffsetOuter1" result="shadowBlurOuter1" stdDeviation=".5"/><feColorMatrix in="shadowBlurOuter1" values="0 0 0 0 0 0 0 0 0 0 0 0 0 0 0 0 0 0 0.204257246 0"/></filter><linearGradient id="c" x1="50%" x2="50%" y1="0%" y2="100%"><stop offset="0%" stop-color="#FFF" stop-opacity=".5"/><stop offset="100%" stop-opacity=".5"/></linearGradient><circle id="b" cx="16" cy="15" r="15"/><path id="e" d="M22.313 8c.494.057.994.088 1.482.176.967.183 1.283.643 1.119 1.576-.066.378-.31.611-.698.674a5.12 5.12 0 01-.698.05c-3.173.007-6.353.013-9.526.026-.48 0-.955.044-1.422.12-1.574.246-2.166.87-2.298 2.388-.06.713-.06.713.685.713h13.028c.205.006.402.044.573.15.58.354.435.908.402 1.419-.026.41-.283.636-.724.718a3.341 3.341 0 01-.56.038h-12.99c-.48 0-.473 0-.434.454.033.416.06.826.165 1.229.197.75.678 1.216 1.455 1.424.862.233 1.751.284 2.64.29 3.1.019 6.195.013 9.296.013.395 0 .763.05.994.397.448.668.099 1.6-.685 1.84-.671.208-1.376.258-2.074.265-2.91.05-5.82.057-8.73 0a15.91 15.91 0 01-2.672-.296c-2.074-.41-3.108-1.418-3.457-3.41-.079-.46-.125-.926-.184-1.387v-3.636c.04-.36.072-.718.119-1.071.276-2.257 1.33-3.366 3.647-3.857.823-.177 1.665-.215 2.495-.297C16.27 8 19.29 8 22.313 8z"/></defs><g fill="none"><use fill="#000" filter="url(#a)" xlink:href="#b"/><use fill="#624DBF" fill-rule="evenodd" xlink:href="#b"/><use fill="url(#c)" fill-rule="evenodd" style="mix-blend-mode:soft-light" xlink:href="#b"/><circle cx="16" cy="15" r="14.5" stroke="#000" stroke-opacity=".097"/><use fill="#000" filter="url(#d)" xlink:href="#e"/><use fill="#FFF" fill-rule="evenodd" xlink:href="#e"/></g></svg>
